assets/images/eightshift-logo.svg

<svg width="180" height="100" xmlns="http://www.w3.org/2000/svg"><g fill="#000" fill-rule="evenodd"><path d="M16 4C9.373 4 4 9.373 4 16v68c0 6.627 5.373 12 12 12h148c6.627 0 12-5.373 12-12V16c0-6.627-5.373-12-12-12H16zm0-4h148c8.837 0 16 7.163 16 16v68c0 8.837-7.163 16-16 16H16c-8.837 0-16-7.163-16-16V16C0 7.163 7.163 0 16 0z" fill-rule="nonzero"/><path d="M31.05 83.988c-8.004 0-13.05-3.654-13.05-9.628 0-3.712 2.146-6.148 5.452-7.482-3.016-1.392-4.756-3.712-4.756-7.366 0-6.148 5.046-9.512 12.354-9.512 7.308 0 12.354 3.132 12.354 9.512 0 3.654-1.798 5.974-4.814 7.366 3.364 1.334 5.51 3.77 5.51 7.482 0 5.974-5.336 9.628-13.05 9.628zm0-4.408c4.35 0 7.772-1.45 7.772-5.394s-3.422-5.394-7.772-5.394-7.772 1.45-7.772 5.394S26.7 79.58 31.05 79.58zm0-14.616c4.582 0 7.192-1.392 7.192-5.278 0-4.176-3.016-5.278-7.192-5.278s-7.192 1.102-7.192 5.278c0 3.886 2.61 5.278 7.192 5.278z"/></g></svg>

<?xml version="1.0" encoding="UTF-8"?>
<svg width="180px" height="100px" viewBox="0 0 180 100" version="1.1" xmlns="http://www.w3.org/2000/svg" xmlns:xlink="http://www.w3.org/1999/xlink">
    <!-- Generator: Sketch 46.2 (44496) - http://www.bohemiancoding.com/sketch -->
    <title>Eightshift</title>
    <desc>Created with Sketch.</desc>
    <defs></defs>
    <g id="00-Coming-soon" stroke="none" stroke-width="1" fill="none" fill-rule="evenodd">
        <g id="Artboard" transform="translate(-593.000000, -295.000000)" fill="#000000">
            <g id="Eightshift" transform="translate(593.000000, 295.000000)">
                <path d="M16,4 C9.372583,4 4,9.372583 4,16 L4,84 C4,90.627417 9.372583,96 16,96 L164,96 C170.627417,96 176,90.627417 176,84 L176,16 C176,9.372583 170.627417,4 164,4 L16,4 Z M16,0 L164,0 C172.836556,0 180,7.163444 180,16 L180,84 C180,92.836556 172.836556,100 164,100 L16,100 C7.163444,100 0,92.836556 0,84 L0,16 C0,7.163444 7.163444,0 16,0 Z" id="Rectangle" fill-rule="nonzero"></path>
                <path d="M31.05,83.988 C23.046,83.988 18,80.334 18,74.36 C18,70.648 20.146,68.212 23.452,66.878 C20.436,65.486 18.696,63.166 18.696,59.512 C18.696,53.364 23.742,50 31.05,50 C38.358,50 43.404,53.132 43.404,59.512 C43.404,63.166 41.606,65.486 38.59,66.878 C41.954,68.212 44.1,70.648 44.1,74.36 C44.1,80.334 38.764,83.988 31.05,83.988 Z M31.05,79.58 C35.4,79.58 38.822,78.13 38.822,74.186 C38.822,70.242 35.4,68.792 31.05,68.792 C26.7,68.792 23.278,70.242 23.278,74.186 C23.278,78.13 26.7,79.58 31.05,79.58 Z M31.05,64.964 C35.632,64.964 38.242,63.572 38.242,59.686 C38.242,55.51 35.226,54.408 31.05,54.408 C26.874,54.408 23.858,55.51 23.858,59.686 C23.858,63.572 26.468,64.964 31.05,64.964 Z" id="8"></path>
            </g>
        </g>
    </g>
</svg>
